svg/FoundationIcons/fi-html5.svg

<svg xmlns="http://www.w3.org/2000/svg" viewBox="0 0 100 100" enable-background="new 0 0 100 100"><path d="m20.706 16.778l5.332 59.802 23.926 6.643 23.993-6.651 5.337-59.793h-58.59zm47.47 14.192l-.334 3.718-.147 1.648h-.023-17.668-.025-10.351l.67 7.511h9.68.026 15.05 1.977l-.179 1.97-1.724 19.311-.11 1.238-15.01 4.16-.034.011-15.02-4.171-1.027-11.517h3.393 3.969l.522 5.851 8.168 2.205.007-.002 8.181-2.209.851-9.512h-9.01-.025-16.389l-1.802-20.21-.175-1.969h18.366.025 18.348l-.176 1.969"/></svg>

<?xml version="1.0" encoding="utf-8"?>
<!-- Generator: Adobe Illustrator 17.0.0, SVG Export Plug-In . SVG Version: 6.00 Build 0)  -->
<!DOCTYPE svg PUBLIC "-//W3C//DTD SVG 1.1//EN" "http://www.w3.org/Graphics/SVG/1.1/DTD/svg11.dtd">
<svg version="1.1" id="Layer_1" xmlns="http://www.w3.org/2000/svg" xmlns:xlink="http://www.w3.org/1999/xlink" x="0px" y="0px"
	 width="100px" height="100px" viewBox="0 0 100 100" enable-background="new 0 0 100 100" xml:space="preserve">
<g>
	<path d="M20.706,16.778l5.332,59.802l23.926,6.643l23.993-6.651l5.337-59.793H20.706z M68.172,30.97l-0.334,3.718l-0.147,1.648
		h-0.023H50h-0.025H39.624l0.67,7.511h9.68H50h15.047h1.977l-0.179,1.97l-1.724,19.311l-0.11,1.238L50,70.526v0l-0.034,0.011
		l-15.024-4.171l-1.027-11.517h3.393h3.969l0.522,5.851l8.168,2.205l0.007-0.002v-0.001l8.181-2.208l0.851-9.512H50h-0.025H33.586
		L31.784,30.97l-0.175-1.969h18.366H50h18.348L68.172,30.97z"/>
</g>
</svg>
